X: 13341
T: Flathunters, The
R: reel
M: 4/4
K: Bminor
|~B3d ~e3f|gfef edcA|B2(3Bcd e2fd|edfd edcd|
~B3d ~e3f|gfeg ~f3g|a~d3 afef|d2fd edcA|
~B3d ~e3f|gfef edcA|B2(3Bcd e~f3|e~g3 f~b3|
BA (3Bcd e2 ef|gfeg f2fg|a~d3 afef|gefg acde||
f~B3 fBa^g|fcBc f2 aa|fd(3ddd f2f^g|afec dfa^g|
f~B3 fBa^g|fcBc f2a^g|f~d3 f2f^g|afec aba^g|
f~B3 fBa^g|fcBc f2a^g|fdcd f2f^g|afec dfa^g|
f~B3fBa^g|fcBc f2a^g|fdef edcA|B2fd edcd||

